X: 803
T: Geldi Yine Güzelim Yaz
C: Ârif Sâmi Toker
O: Turkey
F: http://compmusic.upf.edu/node/140
N: nihavent--sarki--nimsofyan--geldi_yine--arif_sami_toker
N: makam= nihavent
N: form= sarki
N: usul= nimsofyan = 2/4
M: 2/4
L: 1/16
K: C _B _e  
Q: 1/4=102
%%MIDI tuningsystem comma53
g3a b2g2  | ^f8  | e3^f g2e2  | d8  | z2c4c2  | \
w:  ARANAĞME  |   |   |   |   | 
B4 A4  | B4 c4  | d8  | g3a b2g2  | 
w:   |   |   |  ARANAĞME  | 
^f8  | e3^f g2e2  | d8  | z2c4c2  | B4 A4  | G4 ^F4  | G8  | \
w:   |   |   |   |   |   |   | 
G4 G2A2  | B6c2  | d4 B4  | 
w:  Gel di  yi  |  ne  gü  |  ze lim   | 
G8  | z4 d2g2  | d4 c4  | B4 c4  | d2AB c2BA  | \
w:  yaz   |  gö nül   |  eğ len  |  sin  bi  |  raz   SAZ  | 
G4 G2A2  | B6c2  | d4 B4  | 
w:  Gel di  yi  |  ne  gü  |  ze lim   | 
G8  | z4 d2g2  | d4 c4  | B4 c4  | d8  | g4 b2g2  | ^f8  | \
w:  yaz   |  gö nül   |  eğ len  |  sin  bi  |  raz    |  Şen  A da  |  lar   | 
e2^f2 g2e2  | d8  | z2c4c2  | 
w:  ma *  vi  Bo  |  ğaz   |  sev gi  | 
B4 A4  | B4 c4  | d8  | g4 b2g2  | ^f8  | e2^f2 g2e2  | d8  | \
w:  lim  gel   |  et me   |  naz    |  Şen  A da  |  lar   |  ma *  vi  Bo  |  ğaz   | 
z2c4c2  | B4 A4  | G4 ^F4  | 
w:  sev gi  |  lim  gel   |  et me   | 
G8  | g2g6  | g4 z2b2  | a2g2 ^f2g2  | a8  | a2c'6  | \
w:  naz    |  Se vinç  |  ten  ka  |  nat *  lı  |  yım   |  u çan   | 
b4 a4  | b4 c'4  | d'8  | c'4 b2a2  | 
w:  mar tı  |  lar  gi  |  bi    |  Gel  gü ze  | 
g6b2  | (3a2g2a2 (3g2^f2g2  | ^f8  | g2b6  | \
w:  lim  se  |  vi *  *  şe  |  lim   |  gö nül   | 
a2g2 g2^f2  | g2^fe e2ed  | 
w:  şen *  len  |  sin  *  *  *  bi    | 
d8  | g4 b2g2  | ^f8  | e2^f2 g2e2  | d8  | z2c4c2  | \
w:  raz    |  Şen  A da  |  lar   |  ma *  vi  Bo  |  ğaz   |  sev gi  | 
B4 A4  | B4 c4  | d8  | g4 b2g2  | 
w:  lim  gel   |  et me   |  naz    |  Şen  A da  | 
^f8  | e2^f2 g2e2  | d8  | z2c4c2  | B4 A4  | \
w:  lar   |  ma *  vi  Bo  |  ğaz   |  sev gi  |  lim  gel   | 
G4 ^F4  | G8  | g3a b2g2  | ^f8  | e3^f g2e2  | 
w:  et me   |  naz    |  ARANAĞME  |   |   | 
d8  | z2c4c2  | B4 A4  | B4 c4  | d8  | g3a b2g2  | ^f8  | \
w:   |   |   |   |   |  ARANAĞME  |   | 
e3^f g2e2  | d8  | z2c4c2  | 
w:   |   |   | 
B4 A4  | G4 ^F4  | G8  | G4 G2A2  | B6c2  | d2B4A2  | G8  | \
w:   |   |   |  El  e le  |  yiz   |  se nin  |  le   | 
d2g4e2  | d4 c4  | B4 c4  | 
w:  a kıp  gi  |  den  şu   |  san dal  | 
d2AB c2BA  | G4 G2A2  | B6c2  | d2B4A2  | G8  | \
w:  da   SAZ  |  El  e le  |  yiz   |  se nin  |  le   | 
d2g4e2  | d4 c4  | B4 c4  | 
w:  a kıp  gi  |  den  şu   |  san dal  | 
d8  | g2a2 b2g2  | ^f8  | e2^f2 g2e2  | d8  | \
w:  da    |  A da lar  |  da   |  Mo da lar  |  da   | 
z4 c2c2  | B4 A4  | B2B2 c2d2  | d8  | 
w:  gü ze  |  lim  Mar  |  ma ra lar  |  da    | 
g2a2 b2g2  | ^f8  | e2^f2 g2e2  | d8  | z4 c2c2  | \
w:  A da lar  |  da   |  Mo da lar  |  da   |  gü ze  | 
B4 A4  | G2G2 ^F4  | G8  | z4 g2g2  | 
w:  lim  Mar  |  ma ra lar  |  da    |  Ge ce   | 
g4 b4  | a2g2 ^f2g2  | a8  | z4 a2c'2  | b4 a4  | \
w:  meh tap   |  yi ne  dol  |  gun   |  u yu  |  yor  ma  | 
b4 c'4  | d'8  | c'4 b2a2  | g6b2  | (3a2g2a2 (3g2^f2g2  | 
w:  vi  su  |  lar    |  Gel  gü ze  |  lim  se  |  vi *  *  şe  | 
^f8  | g4 b4  | a2g4^f2  | g2^fe e2ed  | d8  | \
w:  lim   |  aşk tan   |  gü zel   |  şey  *  *  *  mi   |  var    | 
g4 b2g2  | ^f8  | e2^f2 g2e2  | 
w:  Şen  A da  |  lar   |  ma *  vi  Bo  | 
d8  | z2c4c2  | B4 A4  | B4 c4  | d8  | g4 b2g2  | ^f8  | \
w:  ğaz   |  sev gi  |  lim  gel   |  et me   |  naz    |  Şen  A da  |  lar   | 
e2^f2 g2e2  | d8  | z2c4c2  | 
w:  ma *  vi  Bo  |  ğaz   |  sev gi  | 
B4 A4  | G4 ^F4  | G8  | |


